X:1
T:Title
%%score { 1 | 2 }
L:1/8
M:6/8
K:Ab
V:1 treble nm="Grand Piano"
V:2 bass 
V:1
 z3 z2[Q:1/4=100] [A,CE] | [CEA]2 [CEA] [CEA]2 [CEB] | [Ec]2 [Ec] [Ec]2 [A,EA] | %3
 [DFA]2 [A,DF] [DFA]2 [DFA] | [CE]3- [CE]2 [CE] | [CEA]2 [CEA] [CEA]2 [CEA] | %6
 [Ec]2 [Ec] [Ec]2 [Ec] | [=DFc]2 [DFB] [DFB]2 [DFc] | [EGB]3- [EGB]2 [A,CE] | %9
 [CEA]2 [CEA] [CEA]2 [CEB] | [Ec]2 [Ec] [Ec]2 [FA] | [FA]2 [DF] [FA]2 [FA] | [FA]3- [FA]2 [A,DF] | %13
 [CE]2 [CE] [A,EA]2 B | c2 c c2 [EA] | [FB]2 [DFB] [CEA]2 [B,EG] |[M:5/8] [CEA]-[CEA]- [CEA]3 | %17
[M:1/8] [Ec] |[M:3/4] [Fd]2 [Fd] [FA]2 [FB] | [Fc]4- [Fc][FA] | [FA]2 [DF][FA] [FA]2 | %21
 [FA]4- [FA][DF] | [CE]2 [CE] [CE]2 [CE] | [CEA] [CEA]2 [CEA]2 [CEA] | [=DFc] [DFB]2 [DFB]2 [DFc] | %25
 [EGB]4- [EGB][DGB] | A2 A A2 B | c c2 c2 A | [FA] [DF]2 [FA]2 [FA] | [FA]4- [FA][DF] | %30
 [CE]2 [CE] [EA]2 B |[M:7/8] c c2 e3 [FAd] |[M:3/4] [EAc]2 [CEA] [DGB]2 [B,EG] | %33
[M:5/8] [CEA]-[CEA]- [CEA]3 |] %34
V:2
 z3 z2 A,, | A,,2 A,, A,,2 A,, | [A,,A,]2 [A,,A,] [A,,A,]2 C, | D,2 D, D,2 D, | A,,3- A,,2 A,, | %5
 A,,2 A,, A,,2 A,, | [A,,A,]2 [A,,A,] [A,,A,]2 [A,,A,] | B,,2 B,, B,,2 B,, | E,3- E,2 A,, | %9
 A,,2 A,, A,,2 A,, | [A,,A,]2 [A,,A,] [A,,A,]2 [C,A,] | [D,D]2 [D,A,] [D,D]2 [D,D] | %12
 [D,D]3- [D,D]2 D, | A,,2 A,, C,2 [E,G,E] | [A,E]2 [A,E] [A,E]2 [C,A,] | [D,A,]2 D, E,2 E, | %16
[M:5/8] A,,-A,,- A,,3 |[M:1/8] [A,,A,] |[M:3/4] [D,A,]2 [D,A,] [D,D]2 [D,A,] | %19
 [C,G,]4- [C,G,][D,A,] | [D,A,]2 [D,A,][D,D] [D,D]2 | [D,D]4- [D,D][D,A,] | %22
 [A,,A,]2 [A,,A,] [A,,A,]2 [A,,A,] | A,, A,,2 A,,2 A,, | B,, B,,2 B,,2 B,, | E,4- E,E, | %26
 [A,CE]2 [A,CE] [A,CE]2 [A,DE] | [A,EA] [A,EA]2 [A,EA]2[K:bass] [A,CE] | %28
 [D,A,] [D,A,]2 [D,D]2 [D,D] | [D,D]4- [D,D][D,A,] | [A,,A,]2 [A,,A,] [C,A,]2 [E,G,E] | %31
[M:7/8][K:treble] [A,E] [A,EA]2 [A,CA]3[K:bass] D, |[M:3/4] E,2 E, E,2 E, |[M:5/8] A,,-A,,- A,,3 |] %34

